converted-html/public/images/icons/icon-time.svg

<?xml version="1.0" encoding="UTF-8" standalone="no"?>
<svg width="18px" height="18px" viewBox="0 0 18 18" version="1.1" xmlns="http://www.w3.org/2000/svg" xmlns:xlink="http://www.w3.org/1999/xlink" xmlns:sketch="http://www.bohemiancoding.com/sketch/ns">
    <title>icon-time</title>
    <description>Created with Sketch (http://www.bohemiancoding.com/sketch)</description>
    <defs></defs>
    <g id="Page-1" stroke="none" stroke-width="1" fill="none" fill-rule="evenodd" sketch:type="MSPage">
        <g id="icon-time" sketch:type="MSArtboardGroup" fill="#9E9EA8">
            <path d="M9,18 C4.02946875,18 0,13.9705313 0,9 C0,4.02946875 4.02946875,0 9,0 C13.9705313,0 18,4.02946875 18,9 C18,13.9705313 13.9705313,18 9,18 M9,2 C5.13411538,2 2,5.13411538 2,9 C2,12.8658846 5.13411538,16 9,16 C12.8658846,16 16,12.8658846 16,9 C16,5.13411538 12.8658846,2 9,2 M12.2105263,10 L8.78947368,10 C8.35342105,10 8,9.60829167 8,9.125 L8,3.875 C8,3.39170833 8.35342105,3 8.78947368,3 C9.22552632,3 9.57894737,3.39170833 9.57894737,3.875 L9.57894737,8.25 L12.2105263,8.25 C12.6465789,8.25 13,8.64170833 13,9.125 C13,9.60829167 12.6465789,10 12.2105263,10" id="time" sketch:type="MSShapeGroup"></path>
        </g>
    </g>
</svg>

<svg width="18" height="18" viewBox="0 0 18 18" xmlns="http://www.w3.org/2000/svg" xmlns:sketch="http://www.bohemiancoding.com/sketch/ns"><title>icon-time</title><path d="M9 18c-4.971 0-9-4.029-9-9s4.029-9 9-9 9 4.029 9 9-4.029 9-9 9m0-16c-3.866 0-7 3.134-7 7s3.134 7 7 7 7-3.134 7-7-3.134-7-7-7m3.211 8h-3.421c-.436 0-.789-.392-.789-.875v-5.25c0-.483.353-.875.789-.875.436 0 .789.392.789.875v4.375h2.632c.436 0 .789.392.789.875s-.353.875-.789.875" sketch:type="MSShapeGroup" fill="#9E9EA8"/></svg>
